X: 48
T:Aikendrum Polka, The
C:Rick Gagne, 1997
N:IrTrad, 6/99
R:polka
M:2/4
L:1/8
K:D
fg|:~a2 af|gb bg|fd df|ec AG|FA df|gB Bg|fd ec|1 de fg:||2 d2 dB||
~A2 Ag|fd df|eA Ag|fd dB|~A2 Ag|fd df|eA gf|1 d2 dB:||2 de fg||
